src/16/actions/tag-new.svg

<svg xmlns="http://www.w3.org/2000/svg" viewBox="0 0 16 16">
  <defs id="defs3051">
    <style type="text/css" id="current-color-scheme">
      .ColorScheme-Text {
        color:#5d656b;
      }
      </style>
  </defs>
 <path style="fill:currentColor;fill-opacity:1;stroke:none" 
     d="M 8 2 L 2.03125 2.03125 L 2 8 L 8 13.539062 L 8 8 L 9 8 L 10 8 L 13.539062 8 L 8 2 z M 5.5 4 C 6.3284271 4 7 4.6715728 7 5.5 C 7 6.3284272 6.3284271 7 5.5 7 C 4.6715729 7 4 6.3284272 4 5.5 C 4 4.6715728 4.6715729 4 5.5 4 z M 11 9 L 11 11 L 9 11 L 9 12 L 11 12 L 11 14 L 12 14 L 12 12 L 14 12 L 14 11 L 12 11 L 12 9 L 11 9 z "
     class="ColorScheme-Text"
     />
</svg>

<svg xmlns="http://www.w3.org/2000/svg" viewBox="0 0 16 16"><path d="M8 2l-5.969.031L2 8l6 5.54V8h5.54L8 2zM5.5 4a1.5 1.5 0 1 1 0 3 1.5 1.5 0 0 1 0-3zM11 9v2H9v1h2v2h1v-2h2v-1h-2V9h-1z" fill="currentColor" color="#5d656b"/></svg>
